(
SynthDef(\sin, {|out=0,freq=440,sustain=1,pan=0,begin=0,end=1,speed=1,accelerate=0|
  var envLength = sustain*(end-begin)/speed;
  var line = Line.ar(begin, end, envLength, doneAction: Done.freeSelf);
  var env = Env.asr;
  var volume = IEnvGen.ar(env, line);
  var sig;

  freq = max(0, freq * speed * (1 + (accelerate * line)));
  sig = SinOsc.ar(freq);

  Out.ar(out, DirtPan.ar(sig * volume, ~dirt.numChannels, pan));
}).add;
)
